packages/foundations/assets/icons/functional/images/social/face_neutral_32.svg

<svg xmlns="http://www.w3.org/2000/svg" width="32" height="32" fill="none"><g clip-path="url(#a)"><path fill="#1A1C1F" fill-rule="evenodd" d="M26.307 16c0 5.683-4.624 10.307-10.307 10.307S5.693 21.683 5.693 16 10.317 5.693 16 5.693 26.307 10.317 26.307 16M4 16c0 6.627 5.373 12 12 12s12-5.373 12-12S22.627 4 16 4 4 9.373 4 16m17 4a1 1 0 0 0-1-1h-8a1 1 0 1 0 0 2h8a1 1 0 0 0 1-1m-10.5-7a2 2 0 1 1 3.999-.001A2 2 0 0 1 10.5 13m9 2a2 2 0 1 0 .001-3.999A2 2 0 0 0 19.5 15" clip-rule="evenodd"/></g><defs><clipPath id="a"><path fill="#fff" d="M0 0h32v32H0z"/></clipPath></defs></svg>

<svg width="32" height="32" viewBox="0 0 32 32" fill="none" xmlns="http://www.w3.org/2000/svg">
<g clip-path="url(#clip0_187_367)">
<path fill-rule="evenodd" clip-rule="evenodd" d="M26.307 16C26.307 21.683 21.683 26.307 16 26.307C10.317 26.307 5.693 21.683 5.693 16C5.693 10.317 10.317 5.693 16 5.693C21.683 5.693 26.307 10.317 26.307 16ZM4 16C4 22.627 9.373 28 16 28C22.627 28 28 22.627 28 16C28 9.373 22.627 4 16 4C9.373 4 4 9.373 4 16ZM21 20C21 19.447 20.552 19 20 19H12C11.448 19 11 19.447 11 20C11 20.553 11.448 21 12 21H20C20.552 21 21 20.553 21 20ZM10.5 13C10.5 11.895 11.395 11 12.5 11C13.605 11 14.5 11.895 14.5 13C14.5 14.105 13.605 15 12.5 15C11.395 15 10.5 14.105 10.5 13ZM19.5 15C20.605 15 21.5 14.105 21.5 13C21.5 11.895 20.605 11 19.5 11C18.395 11 17.5 11.895 17.5 13C17.5 14.105 18.395 15 19.5 15Z" fill="#1A1C1F"/>
</g>
<defs>
<clipPath id="clip0_187_367">
<rect width="32" height="32" fill="white"/>
</clipPath>
</defs>
</svg>
